;FLAVOR:Marlin
G21 ;metric values
G90 ;absolute positioning
M82 ;set extruder to absolute mode
M106 ;start with the fan on
G28 X0 Y0 ;move X/Y to min endstops
G28 Z0 ;move Z to min endstops
G29 ;Run the auto bed leveling
G1 Z15.0 F4200 ;move the platform down 15mm
G92 E0 ;zero the extruded length
G1 F200 E3 ;extrude 3mm of feed stock
G92 E0 ;zero the extruded length again
G1 F4200 ;default speed
;Put printing message on LCD screen
M117
;LAYER_COUNT:20
;LAYER:0
G0 X95.525 Y95.525 Z0.5
;TYPE:WALL-INNER
G1 X104.475 E0.34986
G1 Y104.475 E0.69972
G1 X95.525 E1.04958
G1 Y95.525 E1.39945
G0 X95.175 Y95.175 
;TYPE:WALL-OUTER
G1 X104.825 E1.77667
G1 Y104.825 E2.1539
G1 X95.175 E2.53112
G1 Y95.175 E2.90835
G0 X95.525 Y95.525 
G0 F60 X96 Y104.125 
;TYPE:FILL
G1 Y95.875 E3.23085
G0 X96.6 
G1 Y104.125 E3.55334
G0 X97.2 
G1 Y95.875 E3.87584
G0 X97.8 
G1 Y104.125 E4.19834
G0 X98.4 
G1 Y95.875 E4.52084
G0 X99 
G1 Y104.125 E4.84334
G0 X99.6 
G1 Y95.875 E5.16583
G0 X100.2 
G1 Y104.125 E5.48833
G0 X100.8 
G1 Y95.875 E5.81083
G0 X101.4 
G1 Y104.125 E6.13333
G0 X102 
G1 Y95.875 E6.45583
G0 X102.6 
G1 Y104.125 E6.77833
G0 X103.2 
G1 Y95.875 E7.10082
G0 X103.8 
G1 Y104.125 E7.42332
G0 X95.175 Y95.175 
;LAYER:1
G0 X95.525 Y95.525 Z1
;TYPE:WALL-INNER
G1 X104.475 E7.77318
G1 Y104.475 E8.12304
G1 X95.525 E8.47291
G1 Y95.525 E8.82277
G0 X95.175 Y95.175 
;TYPE:WALL-OUTER
G1 X104.825 E9.19999
G1 Y104.825 E9.57722
G1 X95.175 E9.95444
G1 Y95.175 E10.33167
G0 X95.525 Y95.525 
G0 F60 X104.125 Y96 
;TYPE:FILL
G1 X95.875 E10.65417
G0 Y96.6 
G1 X104.125 E10.97667
G0 Y97.2 
G1 X95.875 E11.29916
G0 Y97.8 
G1 X104.125 E11.62166
G0 Y98.4 
G1 X95.875 E11.94416
G0 Y99 
G1 X104.125 E12.26666
G0 Y99.6 
G1 X95.875 E12.58916
G0 Y100.2 
G1 X104.125 E12.91165
G0 Y100.8 
G1 X95.875 E13.23415
G0 Y101.4 
G1 X104.125 E13.55665
G0 Y102 
G1 X95.875 E13.87915
G0 Y102.6 
G1 X104.125 E14.20165
G0 Y103.2 
G1 X95.875 E14.52415
G0 Y103.8 
G1 X104.125 E14.84664
G0 X95.175 Y95.175 
;LAYER:2
G0 X95.525 Y95.525 Z1.5
;TYPE:WALL-INNER
G1 X104.475 E15.1965
G1 Y104.475 E15.54637
G1 X95.525 E15.89623
G1 Y95.525 E16.24609
G0 X95.175 Y95.175 
;TYPE:WALL-OUTER
G1 X104.825 E16.62331
G1 Y104.825 E17.00054
G1 X95.175 E17.37777
G1 Y95.175 E17.75499
G0 X95.525 Y95.525 
G0 F60 X96 Y104.125 
;TYPE:FILL
G1 Y95.875 E18.07749
G0 X96.6 
G1 Y104.125 E18.39999
G0 X97.2 
G1 Y95.875 E18.72248
G0 X97.8 
G1 Y104.125 E19.04498
G0 X98.4 
G1 Y95.875 E19.36748
G0 X99 
G1 Y104.125 E19.68998
G0 X99.6 
G1 Y95.875 E20.01248
G0 X100.2 
G1 Y104.125 E20.33498
G0 X100.8 
G1 Y95.875 E20.65747
G0 X101.4 
G1 Y104.125 E20.97997
G0 X102 
G1 Y95.875 E21.30247
G0 X102.6 
G1 Y104.125 E21.62497
G0 X103.2 
G1 Y95.875 E21.94747
G0 X103.8 
G1 Y104.125 E22.26996
G0 X95.175 Y95.175 
;LAYER:3
G0 X95.525 Y95.525 Z2
;TYPE:WALL-INNER
G1 X104.475 E22.61983
G1 Y104.475 E22.96969
G1 X95.525 E23.31955
G1 Y95.525 E23.66941
G0 X95.175 Y95.175 
;TYPE:WALL-OUTER
G1 X104.825 E24.04664
G1 Y104.825 E24.42386
G1 X95.175 E24.80109
G1 Y95.175 E25.17831
G0 X95.525 Y95.525 
G0 F60 X104.125 Y96 
;TYPE:FILL
G1 X95.875 E25.50081
G0 Y96.6 
G1 X104.125 E25.82331
G0 Y97.2 
G1 X95.875 E26.14581
G0 Y97.8 
G1 X104.125 E26.4683
G0 Y98.4 
G1 X95.875 E26.7908
G0 Y99 
G1 X104.125 E27.1133
G0 Y99.6 
G1 X95.875 E27.4358
G0 Y100.2 
G1 X104.125 E27.7583
G0 Y100.8 
G1 X95.875 E28.0808
G0 Y101.4 
G1 X104.125 E28.40329
G0 Y102 
G1 X95.875 E28.72579
G0 Y102.6 
G1 X104.125 E29.04829
G0 Y103.2 
G1 X95.875 E29.37079
G0 Y103.8 
G1 X104.125 E29.69329
G0 X95.175 Y95.175 
;LAYER:4
G0 X95.525 Y95.525 Z2.5
;TYPE:WALL-INNER
G1 X104.475 E30.04315
G1 Y104.475 E30.39301
G1 X95.525 E30.74287
G1 Y95.525 E31.09273
G0 X96.975 Y96.975 
;TYPE:WALL-INNER
G1 X103.025 E31.32923
G1 Y103.025 E31.56573
G1 X96.975 E31.80223
G1 Y96.975 E32.03873
G0 X95.175 Y95.175 
;TYPE:WALL-OUTER
G1 X104.825 E32.41595
G1 Y104.825 E32.79318
G1 X95.175 E33.1704
G1 Y95.175 E33.54763
G0 X97.325 Y97.325 
;TYPE:WALL-OUTER
G1 X102.675 E33.75676
G1 Y102.675 E33.9659
G1 X97.325 E34.17503
G1 Y97.325 E34.38417
G0 X95.525 Y95.525 
G0 F60 X96 Y104.125 
;TYPE:FILL
G1 Y95.875 E34.70667
G0 X96.6 
G1 Y104.125 E35.02917
G0 X97.2 
G1 Y103.375 E35.05848
G0 Y96.625 
G1 Y95.875 E35.0878
G0 X97.8 
G1 Y96.625 E35.11712
G0 Y103.375 
G1 Y104.125 E35.14644
G0 X98.4 
G1 Y103.375 E35.17576
G0 Y96.625 
G1 Y95.875 E35.20507
G0 X99 
G1 Y96.625 E35.23439
G0 Y103.375 
G1 Y104.125 E35.26371
G0 X99.6 
G1 Y103.375 E35.29303
G0 Y96.625 
G1 Y95.875 E35.32235
G0 X100.2 
G1 Y96.625 E35.35166
G0 Y103.375 
G1 Y104.125 E35.38098
G0 X100.8 
G1 Y103.375 E35.4103
G0 Y96.625 
G1 Y95.875 E35.43962
G0 X101.4 
G1 Y96.625 E35.46894
G0 Y103.375 
G1 Y104.125 E35.49825
G0 X102 
G1 Y103.375 E35.52757
G0 Y96.625 
G1 Y95.875 E35.55689
G0 X102.6 
G1 Y96.625 E35.58621
G0 Y103.375 
G1 Y104.125 E35.61553
G0 X103.2 
G1 Y103.375 E35.64484
G0 Y96.625 
G1 Y95.875 E35.67416
G0 X103.8 
G1 Y104.125 E35.99666
G0 X95.175 Y95.175 
;LAYER:5
G0 X95.525 Y95.525 Z3
;TYPE:WALL-INNER
G1 X104.475 E36.34652
G1 Y104.475 E36.69638
G1 X95.525 E37.04624
G1 Y95.525 E37.39611
G0 X96.975 Y96.975 
;TYPE:WALL-INNER
G1 X103.025 E37.63261
G1 Y103.025 E37.8691
G1 X96.975 E38.1056
G1 Y96.975 E38.3421
G0 X95.175 Y95.175 
;TYPE:WALL-OUTER
G1 X104.825 E38.71933
G1 Y104.825 E39.09655
G1 X95.175 E39.47378
G1 Y95.175 E39.851
G0 X97.325 Y97.325 
;TYPE:WALL-OUTER
G1 X102.675 E40.06014
G1 Y102.675 E40.26927
G1 X97.325 E40.47841
G1 Y97.325 E40.68754
G0 X95.525 Y95.525 
G0 F60 X104.125 Y96 
;TYPE:FILL
G1 X95.875 E41.01004
G0 Y96.6 
G1 X104.125 E41.33254
G0 Y97.2 
G1 X103.375 E41.36186
G0 X96.625 
G1 X95.875 E41.39117
G0 Y97.8 
G1 X96.625 E41.42049
G0 X103.375 
G1 X104.125 E41.44981
G0 Y98.4 
G1 X103.375 E41.47913
G0 X96.625 
G1 X95.875 E41.50845
G0 Y99 
G1 X96.625 E41.53776
G0 X103.375 
G1 X104.125 E41.56708
G0 Y99.6 
G1 X103.375 E41.5964
G0 X96.625 
G1 X95.875 E41.62572
G0 Y100.2 
G1 X96.625 E41.65504
G0 X103.375 
G1 X104.125 E41.68435
G0 Y100.8 
G1 X103.375 E41.71367
G0 X96.625 
G1 X95.875 E41.74299
G0 Y101.4 
G1 X96.625 E41.77231
G0 X103.375 
G1 X104.125 E41.80163
G0 Y102 
G1 X103.375 E41.83094
G0 X96.625 
G1 X95.875 E41.86026
G0 Y102.6 
G1 X96.625 E41.88958
G0 X103.375 
G1 X104.125 E41.9189
G0 Y103.2 
G1 X103.375 E41.94822
G0 X96.625 
G1 X95.875 E41.97754
G0 Y103.8 
G1 X104.125 E42.30003
G0 X95.175 Y95.175 
;LAYER:6
G0 X95.525 Y95.525 Z3.5
;TYPE:WALL-INNER
G1 X104.475 E42.64989
G1 Y104.475 E42.99976
G1 X95.525 E43.34962
G1 Y95.525 E43.69948
G0 X96.975 Y96.975 
;TYPE:WALL-INNER
G1 X103.025 E43.93598
G1 Y103.025 E44.17248
G1 X96.975 E44.40898
G1 Y96.975 E44.64547
G0 X95.175 Y95.175 
;TYPE:WALL-OUTER
G1 X104.825 E45.0227
G1 Y104.825 E45.39992
G1 X95.175 E45.77715
G1 Y95.175 E46.15438
G0 X97.325 Y97.325 
;TYPE:WALL-OUTER
G1 X102.675 E46.36351
G1 Y102.675 E46.57265
G1 X97.325 E46.78178
G1 Y97.325 E46.99092
G0 X95.525 Y95.525 
G0 F60 X96 Y104.125 
;TYPE:FILL
G1 Y95.875 E47.31341
G0 X96.6 
G1 Y104.125 E47.63591
G0 X97.2 
G1 Y103.375 E47.66523
G0 Y96.625 
G1 Y95.875 E47.69455
G0 X97.8 
G1 Y96.625 E47.72387
G0 Y103.375 
G1 Y104.125 E47.75318
G0 X98.4 
G1 Y103.375 E47.7825
G0 Y96.625 
G1 Y95.875 E47.81182
G0 X99 
G1 Y96.625 E47.84114
G0 Y103.375 
G1 Y104.125 E47.87046
G0 X99.6 
G1 Y103.375 E47.89977
G0 Y96.625 
G1 Y95.875 E47.92909
G0 X100.2 
G1 Y96.625 E47.95841
G0 Y103.375 
G1 Y104.125 E47.98773
G0 X100.8 
G1 Y103.375 E48.01705
G0 Y96.625 
G1 Y95.875 E48.04636
G0 X101.4 
G1 Y96.625 E48.07568
G0 Y103.375 
G1 Y104.125 E48.105
G0 X102 
G1 Y103.375 E48.13432
G0 Y96.625 
G1 Y95.875 E48.16364
G0 X102.6 
G1 Y96.625 E48.19295
G0 Y103.375 
G1 Y104.125 E48.22227
G0 X103.2 
G1 Y103.375 E48.25159
G0 Y96.625 
G1 Y95.875 E48.28091
G0 X103.8 
G1 Y104.125 E48.60341
G0 X95.175 Y95.175 
;LAYER:7
G0 X95.525 Y95.525 Z4
;TYPE:WALL-INNER
G1 X104.475 E48.95327
G1 Y104.475 E49.30313
G1 X95.525 E49.65299
G1 Y95.525 E50.00285
G0 X96.975 Y96.975 
;TYPE:WALL-INNER
G1 X103.025 E50.23935
G1 Y103.025 E50.47585
G1 X96.975 E50.71235
G1 Y96.975 E50.94885
G0 X95.175 Y95.175 
;TYPE:WALL-OUTER
G1 X104.825 E51.32607
G1 Y104.825 E51.7033
G1 X95.175 E52.08052
G1 Y95.175 E52.45775
G0 X97.325 Y97.325 
;TYPE:WALL-OUTER
G1 X102.675 E52.66688
G1 Y102.675 E52.87602
G1 X97.325 E53.08515
G1 Y97.325 E53.29429
G0 X95.525 Y95.525 
G0 F60 X104.125 Y96 
;TYPE:FILL
G1 X95.875 E53.61679
G0 Y96.6 
G1 X104.125 E53.93929
G0 Y97.2 
G1 X103.375 E53.9686
G0 X96.625 
G1 X95.875 E53.99792
G0 Y97.8 
G1 X96.625 E54.02724
G0 X103.375 
G1 X104.125 E54.05656
G0 Y98.4 
G1 X103.375 E54.08588
G0 X96.625 
G1 X95.875 E54.11519
G0 Y99 
G1 X96.625 E54.14451
G0 X103.375 
G1 X104.125 E54.17383
G0 Y99.6 
G1 X103.375 E54.20315
G0 X96.625 
G1 X95.875 E54.23247
G0 Y100.2 
G1 X96.625 E54.26178
G0 X103.375 
G1 X104.125 E54.2911
G0 Y100.8 
G1 X103.375 E54.32042
G0 X96.625 
G1 X95.875 E54.34974
G0 Y101.4 
G1 X96.625 E54.37906
G0 X103.375 
G1 X104.125 E54.40837
G0 Y102 
G1 X103.375 E54.43769
G0 X96.625 
G1 X95.875 E54.46701
G0 Y102.6 
G1 X96.625 E54.49633
G0 X103.375 
G1 X104.125 E54.52565
G0 Y103.2 
G1 X103.375 E54.55496
G0 X96.625 
G1 X95.875 E54.58428
G0 Y103.8 
G1 X104.125 E54.90678
G0 X95.175 Y95.175 
;LAYER:8
G0 X95.525 Y95.525 Z4.5
;TYPE:WALL-INNER
G1 X104.475 E55.25664
G1 Y104.475 E55.6065
G1 X95.525 E55.95637
G1 Y95.525 E56.30623
G0 X96.975 Y96.975 
;TYPE:WALL-INNER
G1 X103.025 E56.54273
G1 Y103.025 E56.77922
G1 X96.975 E57.01572
G1 Y96.975 E57.25222
G0 X95.175 Y95.175 
;TYPE:WALL-OUTER
G1 X104.825 E57.62945
G1 Y104.825 E58.00667
G1 X95.175 E58.3839
G1 Y95.175 E58.76112
G0 X97.325 Y97.325 
;TYPE:WALL-OUTER
G1 X102.675 E58.97026
G1 Y102.675 E59.17939
G1 X97.325 E59.38853
G1 Y97.325 E59.59766
G0 X95.525 Y95.525 
G0 F60 X96 Y104.125 
;TYPE:FILL
G1 Y95.875 E59.92016
G0 X96.6 
G1 Y104.125 E60.24266
G0 X97.2 
G1 Y103.375 E60.27198
G0 Y96.625 
G1 Y95.875 E60.30129
G0 X97.8 
G1 Y96.625 E60.33061
G0 Y103.375 
G1 Y104.125 E60.35993
G0 X98.4 
G1 Y103.375 E60.38925
G0 Y96.625 
G1 Y95.875 E60.41857
G0 X99 
G1 Y96.625 E60.44789
G0 Y103.375 
G1 Y104.125 E60.4772
G0 X99.6 
G1 Y103.375 E60.50652
G0 Y96.625 
G1 Y95.875 E60.53584
G0 X100.2 
G1 Y96.625 E60.56516
G0 Y103.375 
G1 Y104.125 E60.59448
G0 X100.8 
G1 Y103.375 E60.62379
G0 Y96.625 
G1 Y95.875 E60.65311
G0 X101.4 
G1 Y96.625 E60.68243
G0 Y103.375 
G1 Y104.125 E60.71175
G0 X102 
G1 Y103.375 E60.74107
G0 Y96.625 
G1 Y95.875 E60.77038
G0 X102.6 
G1 Y96.625 E60.7997
G0 Y103.375 
G1 Y104.125 E60.82902
G0 X103.2 
G1 Y103.375 E60.85834
G0 Y96.625 
G1 Y95.875 E60.88766
G0 X103.8 
G1 Y104.125 E61.21015
G0 X95.175 Y95.175 
;LAYER:9
G0 X95.525 Y95.525 Z5
;TYPE:WALL-INNER
G1 X104.475 E61.56002
G1 Y104.475 E61.90988
G1 X95.525 E62.25974
G1 Y95.525 E62.6096
G0 X96.975 Y96.975 
;TYPE:WALL-INNER
G1 X103.025 E62.8461
G1 Y103.025 E63.0826
G1 X96.975 E63.3191
G1 Y96.975 E63.55559
G0 X95.175 Y95.175 
;TYPE:WALL-OUTER
G1 X104.825 E63.93282
G1 Y104.825 E64.31004
G1 X95.175 E64.68727
G1 Y95.175 E65.0645
G0 X97.325 Y97.325 
;TYPE:WALL-OUTER
G1 X102.675 E65.27363
G1 Y102.675 E65.48277
G1 X97.325 E65.6919
G1 Y97.325 E65.90104
G0 X95.525 Y95.525 
G0 F60 X104.125 Y96 
;TYPE:FILL
G1 X95.875 E66.22353
G0 Y96.6 
G1 X104.125 E66.54603
G0 Y97.2 
G1 X103.375 E66.57535
G0 X96.625 
G1 X95.875 E66.60467
G0 Y97.8 
G1 X96.625 E66.63399
G0 X103.375 
G1 X104.125 E66.6633
G0 Y98.4 
G1 X103.375 E66.69262
G0 X96.625 
G1 X95.875 E66.72194
G0 Y99 
G1 X96.625 E66.75126
G0 X103.375 
G1 X104.125 E66.78058
G0 Y99.6 
G1 X103.375 E66.80989
G0 X96.625 
G1 X95.875 E66.83921
G0 Y100.2 
G1 X96.625 E66.86853
G0 X103.375 
G1 X104.125 E66.89785
G0 Y100.8 
G1 X103.375 E66.92717
G0 X96.625 
G1 X95.875 E66.95648
G0 Y101.4 
G1 X96.625 E66.9858
G0 X103.375 
G1 X104.125 E67.01512
G0 Y102 
G1 X103.375 E67.04444
G0 X96.625 
G1 X95.875 E67.07376
G0 Y102.6 
G1 X96.625 E67.10307
G0 X103.375 
G1 X104.125 E67.13239
G0 Y103.2 
G1 X103.375 E67.16171
G0 X96.625 
G1 X95.875 E67.19103
G0 Y103.8 
G1 X104.125 E67.51353
G0 X95.175 Y95.175 
;LAYER:10
G0 X95.525 Y95.525 Z5.5
;TYPE:WALL-INNER
G1 X104.475 E67.86339
G1 Y104.475 E68.21325
G1 X95.525 E68.56311
G1 Y95.525 E68.91297
G0 X96.975 Y96.975 
;TYPE:WALL-INNER
G1 X103.025 E69.14947
G1 Y103.025 E69.38597
G1 X96.975 E69.62247
G1 Y96.975 E69.85897
G0 X95.175 Y95.175 
;TYPE:WALL-OUTER
G1 X104.825 E70.23619
G1 Y104.825 E70.61342
G1 X95.175 E70.99064
G1 Y95.175 E71.36787
G0 X97.325 Y97.325 
;TYPE:WALL-OUTER
G1 X102.675 E71.577
G1 Y102.675 E71.78614
G1 X97.325 E71.99527
G1 Y97.325 E72.20441
G0 X95.525 Y95.525 
G0 F60 X96 Y104.125 
;TYPE:FILL
G1 Y95.875 E72.52691
G0 X96.6 
G1 Y104.125 E72.84941
G0 X97.2 
G1 Y103.375 E72.87872
G0 Y96.625 
G1 Y95.875 E72.90804
G0 X97.8 
G1 Y96.625 E72.93736
G0 Y103.375 
G1 Y104.125 E72.96668
G0 X98.4 
G1 Y103.375 E72.996
G0 Y96.625 
G1 Y95.875 E73.02531
G0 X99 
G1 Y96.625 E73.05463
G0 Y103.375 
G1 Y104.125 E73.08395
G0 X99.6 
G1 Y103.375 E73.11327
G0 Y96.625 
G1 Y95.875 E73.14259
G0 X100.2 
G1 Y96.625 E73.1719
G0 Y103.375 
G1 Y104.125 E73.20122
G0 X100.8 
G1 Y103.375 E73.23054
G0 Y96.625 
G1 Y95.875 E73.25986
G0 X101.4 
G1 Y96.625 E73.28918
G0 Y103.375 
G1 Y104.125 E73.31849
G0 X102 
G1 Y103.375 E73.34781
G0 Y96.625 
G1 Y95.875 E73.37713
G0 X102.6 
G1 Y96.625 E73.40645
G0 Y103.375 
G1 Y104.125 E73.43577
G0 X103.2 
G1 Y103.375 E73.46508
G0 Y96.625 
G1 Y95.875 E73.4944
G0 X103.8 
G1 Y104.125 E73.8169
G0 X95.175 Y95.175 
;LAYER:11
G0 X95.525 Y95.525 Z6
;TYPE:WALL-INNER
G1 X104.475 E74.16676
G1 Y104.475 E74.51662
G1 X95.525 E74.86649
G1 Y95.525 E75.21635
G0 X96.975 Y96.975 
;TYPE:WALL-INNER
G1 X103.025 E75.45285
G1 Y103.025 E75.68934
G1 X96.975 E75.92584
G1 Y96.975 E76.16234
G0 X95.175 Y95.175 
;TYPE:WALL-OUTER
G1 X104.825 E76.53957
G1 Y104.825 E76.91679
G1 X95.175 E77.29402
G1 Y95.175 E77.67124
G0 X97.325 Y97.325 
;TYPE:WALL-OUTER
G1 X102.675 E77.88038
G1 Y102.675 E78.08951
G1 X97.325 E78.29865
G1 Y97.325 E78.50778
G0 X95.525 Y95.525 
G0 F60 X104.125 Y96 
;TYPE:FILL
G1 X95.875 E78.83028
G0 Y96.6 
G1 X104.125 E79.15278
G0 Y97.2 
G1 X103.375 E79.1821
G0 X96.625 
G1 X95.875 E79.21142
G0 Y97.8 
G1 X96.625 E79.24073
G0 X103.375 
G1 X104.125 E79.27005
G0 Y98.4 
G1 X103.375 E79.29937
G0 X96.625 
G1 X95.875 E79.32869
G0 Y99 
G1 X96.625 E79.35801
G0 X103.375 
G1 X104.125 E79.38732
G0 Y99.6 
G1 X103.375 E79.41664
G0 X96.625 
G1 X95.875 E79.44596
G0 Y100.2 
G1 X96.625 E79.47528
G0 X103.375 
G1 X104.125 E79.5046
G0 Y100.8 
G1 X103.375 E79.53391
G0 X96.625 
G1 X95.875 E79.56323
G0 Y101.4 
G1 X96.625 E79.59255
G0 X103.375 
G1 X104.125 E79.62187
G0 Y102 
G1 X103.375 E79.65119
G0 X96.625 
G1 X95.875 E79.6805
G0 Y102.6 
G1 X96.625 E79.70982
G0 X103.375 
G1 X104.125 E79.73914
G0 Y103.2 
G1 X103.375 E79.76846
G0 X96.625 
G1 X95.875 E79.79778
G0 Y103.8 
G1 X104.125 E80.12027
G0 X95.175 Y95.175 
;LAYER:12
G0 X95.525 Y95.525 Z6.5
;TYPE:WALL-INNER
G1 X104.475 E80.47014
G1 Y104.475 E80.82
G1 X95.525 E81.16986
G1 Y95.525 E81.51972
G0 X96.975 Y96.975 
;TYPE:WALL-INNER
G1 X103.025 E81.75622
G1 Y103.025 E81.99272
G1 X96.975 E82.22922
G1 Y96.975 E82.46571
G0 X95.175 Y95.175 
;TYPE:WALL-OUTER
G1 X104.825 E82.84294
G1 Y104.825 E83.22017
G1 X95.175 E83.59739
G1 Y95.175 E83.97462
G0 X97.325 Y97.325 
;TYPE:WALL-OUTER
G1 X102.675 E84.18375
G1 Y102.675 E84.39289
G1 X97.325 E84.60202
G1 Y97.325 E84.81116
G0 X95.525 Y95.525 
G0 F60 X96 Y104.125 
;TYPE:FILL
G1 Y95.875 E85.13365
G0 X96.6 
G1 Y104.125 E85.45615
G0 X97.2 
G1 Y103.375 E85.48547
G0 Y96.625 
G1 Y95.875 E85.51479
G0 X97.8 
G1 Y96.625 E85.54411
G0 Y103.375 
G1 Y104.125 E85.57342
G0 X98.4 
G1 Y103.375 E85.60274
G0 Y96.625 
G1 Y95.875 E85.63206
G0 X99 
G1 Y96.625 E85.66138
G0 Y103.375 
G1 Y104.125 E85.6907
G0 X99.6 
G1 Y103.375 E85.72001
G0 Y96.625 
G1 Y95.875 E85.74933
G0 X100.2 
G1 Y96.625 E85.77865
G0 Y103.375 
G1 Y104.125 E85.80797
G0 X100.8 
G1 Y103.375 E85.83729
G0 Y96.625 
G1 Y95.875 E85.8666
G0 X101.4 
G1 Y96.625 E85.89592
G0 Y103.375 
G1 Y104.125 E85.92524
G0 X102 
G1 Y103.375 E85.95456
G0 Y96.625 
G1 Y95.875 E85.98388
G0 X102.6 
G1 Y96.625 E86.01319
G0 Y103.375 
G1 Y104.125 E86.04251
G0 X103.2 
G1 Y103.375 E86.07183
G0 Y96.625 
G1 Y95.875 E86.10115
G0 X103.8 
G1 Y104.125 E86.42365
G0 X95.175 Y95.175 
;LAYER:13
G0 X95.525 Y95.525 Z7
;TYPE:WALL-INNER
G1 X104.475 E86.77351
G1 Y104.475 E87.12337
